X: 269
T: Beni Aşka Salan Yâre
C: Tanburî Ali Efendi
O: Turkey
F: http://compmusic.upf.edu/node/140
N: saba--sarki--aksak--beni_aska--tanburi_ali_efendi
N: makam= saba
N: form= sarki
N: usul= aksak = 9/8
M: 9/8
L: 1/16
K: C _2/4B _3/4d  
Q: 1/4=132
%%MIDI tuningsystem comma53
c2d2 c2B2 c2d2 c4 B2 | A3GA2 B2cd cBc4z2  | \
w:  ARANAĞME  |   | 
c2d2 e2f2 g2a2 g2f2 e2 | 
w:   | 
d3cd2 e2c2 d2c4B2  | A3G A2B2 c2d2 e2c2 d2 | \
w:   |   | 
c2 BAB2 c2cB2AA4z2  | 
w:   | 
c2d2 c2B2 c2d2 c4 B2 | A3GA2 B2cd cBc4z2  | \
w:  ARANAĞME  |   | 
c2d2 e2f2 g2a2 g2f2 e2 | 
w:   | 
d3cd2 e2c2 d2c4B2  | A3G A2B2 c2d2 e2c2 d2 | \
w:   |   | 
c2 BAB2 c2cB2AA4z2  | 
w:   | 
A2G2 A2B2 c2d2 c4 B2 | d2 c2d2 e2c2 d2c4B2  | \
w:  Ah  *  be ni  aş  |  ka   | 
c2c4d2 d4 cdc2 B2 | 
w:  sa lan  *  yâ  | 
A6 c2B2 c2A4z2  | =d2c2 B2A2 G8-G2 | \
w:  re    |  Be *  ni  *  aş  | 
A2 G2A2 B2c2 d2e2 f2g2  | 
w:  ka   | 
f3e e3d d3c cBAB cd | B2 c6c4z4z2  | \
w:  sa *  lan  *  yâ  |  re    | 
z4 c2g2 g8 f2 | 
w:  Gö nül_ is  | 
a4g2 f2e2 d2c2 B2A2  | a2a4g2 g2f2 f2e2 =d2 | \
w:  ter   |  gü cüm  *  yet  | 
e12z4z2  | z4 gffe e3d d4 c2 | 
w:  mez    |  Gö *  nül_ *  is  | 
c3BB3AA3Gd4z2  | d4 c2d2 B2c2 cBB3A | \
w:  ter   |  gü cüm  *  yet  | 
A6 =d2c2 d2e4z2  | 
w:  mez   SAZ  | 
=d2d4e2 e8-e2 | g2 f2e2 f2e2 f2e2 f2e2  | \
w:  O  hun *  hâ  |  re   | 
a2a4^g2 (3=b2a2g2 f4 e2 | 
w:  ce fâ *  kâ  | 
e12z4z2  | e2f2 e2=d2 d2c2 d4 c2 | a8a2 g2f2 e2=d2  | \
w:  re    |  O  hun *  *  hâ  |  re   | 
c2=d4e2 d2c2 cBA2 Bc | 
w:  ce fâ *  kâ  | 
B2 c8-c2z4z2  | z4 c2g2 g8 f2 | a4g2 f2e2 d2c2 B2A2  | \
w:  re    |  Gö nül_ is  |  ter   | 
a2a4g2 g2f2 f2e2 =d2 | 
w:  gü cüm  *  yet  | 
e12z4z2  | z4 gffe e3d d4 c2 | c3BB3AA3Gd4z2  | \
w:  mez    |  Gö *  nül_ *  is  |  ter   | 
d4 c2d2 B2c2 cBB3A | 
w:  gü cüm  *  yet  | 
A6 |
w:  mez    | 


